configs/network-icons/reya-cronos-icon-dark.svg

<svg width="30" height="30" viewBox="0 0 30 30" fill="none" xmlns="http://www.w3.org/2000/svg">
<path d="M10.2278 18.0369L8.29006 14.327V6.74282L6 3H15.2153C20.6982 3 23.9021 5.75787 23.9021 10.4856C23.9021 13.7031 22.3828 16.0014 19.5422 17.1505L24.1333 27H19.5092L15.4135 18.0369H10.2278ZM8.29006 6.74282V14.327H15.2153C17.8907 14.327 19.4762 12.9152 19.4762 10.4856C19.4762 8.08892 17.8907 6.74282 15.2153 6.74282H10.6077C8.80825 6.74282 10.0895 6.74282 8.29006 6.74282Z" fill="white"/>
</svg>

<svg xmlns="http://www.w3.org/2000/svg" fill="none" viewBox="0 0 30 30">
  <path fill="#fff" d="m10.228 18.037-1.938-3.71V6.743L6 3h9.215c5.483 0 8.687 2.758 8.687 7.486 0 3.217-1.52 5.515-4.36 6.665L24.133 27H19.51l-4.095-8.963h-5.186ZM8.29 6.743v7.584h6.925c2.676 0 4.261-1.412 4.261-3.841 0-2.397-1.585-3.743-4.26-3.743H8.29Z"/>
</svg>
